X: 24704
T: Macpherson's Rant
R: barndance
M: 4/4
K: Gmajor
D2||G3A G2B2|A-GA-B A2E-F|G3A B2A-G|E4- E2D2|
G3A B2AG|A-GA-B A2B-A|G3B A-GE2|D6 Bc||
d3B c-BA-G|B2A2 A2B-c|d3d c-BA-G|E6 e2|
d3B c-BA-G|B2A2 A2D-E|G3B A-GE2|D6||

